shared/images/iconfont/94-kb-iconfont-team-join-16.svg

<svg height="16" viewBox="0 0 16 16" width="16" xmlns="http://www.w3.org/2000/svg"><path d="m6.565 11.735 1.286-1.24a2.5 2.5 0 1 0 0-4.991l-1.286-1.239a4 4 0 1 1 0 7.47zm-4.565-6.53h-.764c-.444 0-.863.104-1.236.288v-1.493a4 4 0 0 1 4-4h8a4 4 0 0 1 4 4v8a4 4 0 0 1 -4 4h-8a4 4 0 0 1 -4-4v-1.493c.373.184.792.288 1.236.288h.764v1.205a2 2 0 0 0 2 2h8a2 2 0 0 0 2-2v-8a2 2 0 0 0 -2-2h-8a2 2 0 0 0 -2 2v1.206zm3.073-.022 2.927 2.82-2.927 2.82a.63.63 0 0 1 -1.073-.427v-1.393h-3a1 1 0 1 1 0-2h3v-1.394a.63.63 0 0 1 1.073-.426z"/></svg>

<svg xmlns="http://www.w3.org/2000/svg" width="16" height="16" viewBox="0 0 16 16">
    <path fill="#000" fill-rule="nonzero" d="M6.565 11.735l1.286-1.24a2.5 2.5 0 1 0 0-4.991L6.565 4.265a4 4 0 1 1 0 7.47zM2 5.205h-.764c-.444 0-.863.104-1.236.288V4a4 4 0 0 1 4-4h8a4 4 0 0 1 4 4v8a4 4 0 0 1-4 4H4a4 4 0 0 1-4-4v-1.493c.373.184.792.288 1.236.288H2V12a2 2 0 0 0 2 2h8a2 2 0 0 0 2-2V4a2 2 0 0 0-2-2H4a2 2 0 0 0-2 2v1.206zm3.073-.022L8 8.003l-2.927 2.82A.63.63 0 0 1 4 10.396V9.003H1a1 1 0 1 1 0-2h3V5.609a.63.63 0 0 1 1.073-.426z"/>
</svg>
